packages/kaspersky-hexa-ui-icons/src/iconsSVGs/16/AddGroupUsers.svg

<svg width="16" height="16" viewBox="0 0 16 16" fill="none" xmlns="http://www.w3.org/2000/svg">
<path fill-rule="evenodd" clip-rule="evenodd" d="M4.54939 1.88757C5.84326 1.88757 6.89518 2.93409 6.89518 4.22876C6.89518 5.52343 5.84326 6.56995 4.54939 6.56995C3.25551 6.56995 2.20359 5.52343 2.20359 4.22876C2.20359 2.93409 3.25551 1.88757 4.54939 1.88757ZM5.59518 4.22876C5.59518 3.6554 5.12863 3.18757 4.54939 3.18757C3.97014 3.18757 3.50359 3.6554 3.50359 4.22876C3.50359 4.80213 3.97014 5.26995 4.54939 5.26995C5.12863 5.26995 5.59518 4.80213 5.59518 4.22876Z" fill="black"/>
<path d="M1.88047 11.6148H4.67705C4.73095 12.0918 4.89863 12.5344 5.15231 12.9148H1.88047C0.969198 12.9148 0.230469 12.176 0.230469 11.2648V10.2241C0.230469 8.65013 1.50646 7.37415 3.08047 7.37415H5.79169C5.43793 7.74843 5.15308 8.18853 4.95742 8.67415H3.08047C2.22443 8.67415 1.53047 9.3681 1.53047 10.2241V11.2648C1.53047 11.4581 1.68717 11.6148 1.88047 11.6148Z" fill="black"/>
<path d="M6.85057 12.7461C6.32016 12.4717 5.95763 11.918 5.95763 11.2796V10.2239C5.95763 8.64989 7.23362 7.3739 8.80763 7.3739H11.4802C11.6663 7.3739 11.8483 7.39175 12.0245 7.42582C11.5495 7.68476 11.1941 8.13548 11.0623 8.67394L8.77984 8.67415C7.93662 8.68897 7.25763 9.37714 7.25763 10.2239V11.2796C7.25763 11.4729 7.41433 11.6296 7.60763 11.6296H8.87231C8.96439 12.172 9.28047 12.6382 9.72204 12.9296H7.60763C7.53227 12.9296 7.45809 12.9246 7.38541 12.9148H7.38369C7.20316 12.8902 7.03191 12.8364 6.87486 12.7584L6.85057 12.7461Z" fill="black"/>
<path fill-rule="evenodd" clip-rule="evenodd" d="M12.5059 4.24341C12.5059 2.94874 11.454 1.90222 10.1601 1.90222C8.86626 1.90222 7.81434 2.94874 7.81434 4.24341C7.81434 5.53808 8.86626 6.5846 10.1601 6.5846C11.454 6.5846 12.5059 5.53808 12.5059 4.24341ZM10.1601 3.20222C10.7394 3.20222 11.2059 3.67004 11.2059 4.24341C11.2059 4.81677 10.7394 5.2846 10.1601 5.2846C9.58089 5.2846 9.11434 4.81677 9.11434 4.24341C9.11434 3.67004 9.58089 3.20222 10.1601 3.20222Z" fill="black"/>
<path d="M12.9573 8.48914C13.3163 8.48914 13.6073 8.78015 13.6073 9.13914V10.651H15.1188C15.4778 10.651 15.7688 10.942 15.7688 11.301C15.7688 11.6599 15.4778 11.951 15.1188 11.951H13.6073V13.4625C13.6073 13.8214 13.3163 14.1125 12.9573 14.1125C12.5983 14.1125 12.3073 13.8214 12.3073 13.4625V11.951H10.7955C10.4365 11.951 10.1455 11.6599 10.1455 11.301C10.1455 10.942 10.4365 10.651 10.7955 10.651H12.3073V9.13914C12.3073 8.78015 12.5983 8.48914 12.9573 8.48914Z" fill="black"/>
</svg>

<svg xmlns="http://www.w3.org/2000/svg" width="16" height="16" fill="none" viewBox="0 0 16 16"><path fill="#000" fill-rule="evenodd" d="M6.8952 4.2288c0-1.2947-1.052-2.3412-2.3458-2.3412S2.2036 2.934 2.2036 4.2288c0 1.2946 1.052 2.3412 2.3458 2.3412s2.3458-1.0466 2.3458-2.3413M10.16 1.9021c1.2939 0 2.3458 1.0465 2.3458 2.3412S11.4539 6.5845 10.16 6.5845 7.8144 5.538 7.8144 4.2434 8.8663 1.9022 10.16 1.9022M4.5494 3.1876c.5792 0 1.0458.4678 1.0458 1.0411 0 .5734-.4666 1.0412-1.0458 1.0412s-1.0458-.4678-1.0458-1.0411c0-.5734.4665-1.0412 1.0458-1.0412m6.6565 1.0558c0-.5734-.4665-1.0412-1.0458-1.0412S9.1144 3.67 9.1144 4.2434s.4665 1.0412 1.0457 1.0412 1.0458-.4678 1.0458-1.0412m-4.3553 8.5027c-.5305-.2744-.893-.8281-.893-1.4665v-1.0557c0-1.574 1.276-2.85 2.85-2.85h2.6726c.1861 0 .3681.0179.5443.052-.475.2589-.8304.7096-.9622 1.248l-2.2825.0002c-.8432.0149-1.5222.703-1.5222 1.5498v1.0557a.35.35 0 0 0 .35.35h1.2647c.092.5424.4082 1.0086.8497 1.3H7.6076q-.113 0-.2222-.0148h-.0017a1.64 1.64 0 0 1-.5088-.1564zm-4.9701-1.1313H4.677c.0538.4771.2215.9197.4752 1.3H1.8805c-.9113 0-1.65-.7387-1.65-1.65v-1.0406c0-1.574 1.276-2.85 2.85-2.85h2.7112a4.15 4.15 0 0 0-.8343 1.3h-1.877c-.856 0-1.55.694-1.55 1.55v1.0406a.35.35 0 0 0 .35.35m11.0768-3.1257a.65.65 0 0 1 .65.65v1.5119h1.5115a.65.65 0 1 1 0 1.3h-1.5115v1.5115a.65.65 0 0 1-1.3 0V11.951h-1.5118a.65.65 0 1 1 0-1.3h1.5118V9.1391a.65.65 0 0 1 .65-.65"/></svg>
